public/livestock/money.svg

<svg fill="none" height="179" viewBox="0 0 179 179" width="179" xmlns="http://www.w3.org/2000/svg" xmlns:xlink="http://www.w3.org/1999/xlink"><clipPath id="a"><path d="m.070313.259277h178.13v178.13h-178.13z"/></clipPath><g clip-path="url(#a)"><path d="m89.1351 178.389c49.1889 0 89.0649-39.876 89.0649-89.065 0-49.1891-39.876-89.064723-89.0649-89.064723-49.1891 0-89.0647875 39.875623-89.0647875 89.064723 0 49.189 39.8756875 89.065 89.0647875 89.065z" fill="#fdb98d"/><path d="m83.9279 34.7552-4.1631-4.1632-7.3644 7.3695 5.3541 5.354h11.3799v-13.7872l-5.2065 5.2065z" fill="#016099"/><path d="m77.754 43.3159h-2.672v10.413h14.0519v-10.413z" fill="#fffac2"/><path d="m100.515 43.3155 5.354-5.354-7.3646-7.3695-4.1632 4.1632v-.0204l-5.2064-5.2065v13.7872z" fill="#3d113c"/><path d="m100.515 43.3159h-11.3802v10.413h14.0522v-10.413z" fill="#00bcb4"/><path d="m132.431 82.9723-29.244-29.2438h-14.0518v31.5544h-.0356v39.8191h.0356v24.017c8.0425.011 16.0078-1.568 23.4378-4.646s14.179-7.594 19.858-13.289c6.391-6.394 9.982-15.065 9.982-24.106 0-9.0405-3.591-17.7113-9.982-24.1057z" fill="#3d113c"/><path d="m75.0835 53.7336-29.2438 29.2387c-6.3929 6.3946-9.9842 15.0665-9.9842 24.1087 0 9.042 3.5913 17.714 9.9842 24.108 5.6795 5.694 12.4283 10.209 19.8584 13.286 7.4302 3.077 15.3952 4.656 23.4373 4.644v-95.3854z" fill="#016099"/><path d="m86.4586 74.6411v7.1252c-2.3077.3362-4.5436 1.0534-6.6162 2.1223-2.014 1.0353-3.8163 2.4387-5.3134 4.1377-1.5309 1.7608-2.7155 3.7949-3.4913 5.9953-.8632 2.4742-1.2869 5.0802-1.252 7.7004-.039 2.645.3847 5.277 1.252 7.777 1.51 4.349 4.6529 7.941 8.7639 10.016 2.0885 1.066 4.3491 1.755 6.6773 2.035v8.805h2.5448v-58.1262c-1.705.0916-2.5651.8906-2.5651 2.4123zm0 40.0689c-2.4827-.676-4.6627-2.174-6.1837-4.25-1.5946-2.124-2.392-5.084-2.392-8.881 0-3.6436.7838-6.5531 2.3513-8.7279 1.5017-2.129 3.7055-3.6607 6.2244-4.326z" fill="#fdb98d"/><path d="m91.9236 121.611c2.5008-.141 4.9614-.693 7.283-1.633 1.4274-.597 2.7984-1.321 4.0974-2.163-.557-.859-1.113-1.744-1.67-2.657l-1.6691-2.733c-.8721.562-1.7857 1.057-2.733 1.481-1.6771.746-3.4795 1.171-5.3134 1.252v-27.086c2.4294.2036 4.3651.76 5.8071 1.6693 1.0694.632 2.0735 1.3685 2.9974 2.1986.773-.5636 1.398-1.3057 1.822-2.163.359-.6674.566-1.4061.606-2.163.027-.681-.15-1.3545-.509-1.9339-.355-.5317-.789-1.0055-1.288-1.4047-.965-.6171-1.9873-1.1387-3.0533-1.5574-1.4692-.6311-3.5932-1.0229-6.372-1.1756v-8.876c-.828-.2967-1.7007-.4499-2.5803-.4529-.1171 0-.2189 0-.3308 0v58.1266h2.9111z" fill="#fc6719"/></g></svg>

<svg width="179" height="179" viewBox="0 0 179 179" fill="none" xmlns="http://www.w3.org/2000/svg">
<g clip-path="url(#clip0_2831_6305)">
<path d="M89.1351 178.389C138.324 178.389 178.2 138.513 178.2 89.324C178.2 40.1349 138.324 0.259277 89.1351 0.259277C39.946 0.259277 0.0703125 40.1349 0.0703125 89.324C0.0703125 138.513 39.946 178.389 89.1351 178.389Z" fill="#FDB98D"/>
<path d="M83.9279 34.7552L79.7648 30.592L72.4004 37.9615L77.7545 43.3155H89.1344V29.5283L83.9279 34.7348V34.7552Z" fill="#016099"/>
<path d="M77.754 43.3159H75.082V53.7289H89.1339V43.3159H77.754Z" fill="#FFFAC2"/>
<path d="M100.515 43.3155L105.869 37.9615L98.5044 30.592L94.3412 34.7552V34.7348L89.1348 29.5283V43.3155H100.515Z" fill="#3D113C"/>
<path d="M100.515 43.3159H89.1348V53.7289H103.187V43.3159H100.515Z" fill="#00BCB4"/>
<path d="M132.431 82.9723L103.187 53.7285H89.1352V85.2829H89.0996V125.102H89.1352V149.119C97.1777 149.13 105.143 147.551 112.573 144.473C120.003 141.395 126.752 136.879 132.431 131.184C138.822 124.79 142.413 116.119 142.413 107.078C142.413 98.0375 138.822 89.3667 132.431 82.9723V82.9723Z" fill="#3D113C"/>
<path d="M75.0835 53.7336L45.8397 82.9723C39.4468 89.3669 35.8555 98.0388 35.8555 107.081C35.8555 116.123 39.4468 124.795 45.8397 131.189V131.189C51.5192 136.883 58.268 141.398 65.6981 144.475C73.1283 147.552 81.0933 149.131 89.1354 149.119V53.7336H75.0835Z" fill="#016099"/>
<path d="M86.4586 74.6411V81.7663C84.1509 82.1025 81.915 82.8197 79.8424 83.8886C77.8284 84.9239 76.0261 86.3273 74.529 88.0263C72.9981 89.7871 71.8135 91.8212 71.0377 94.0216C70.1745 96.4958 69.7508 99.1018 69.7857 101.722C69.7467 104.367 70.1704 106.999 71.0377 109.499C72.5477 113.848 75.6906 117.44 79.8016 119.515C81.8901 120.581 84.1507 121.27 86.4789 121.55V130.355H89.0237V72.2288C87.3187 72.3204 86.4586 73.1194 86.4586 74.6411ZM86.4586 114.71C83.9759 114.034 81.7959 112.536 80.2749 110.46C78.6803 108.336 77.8829 105.376 77.8829 101.579C77.8829 97.9354 78.6667 95.0259 80.2342 92.8511C81.7359 90.7221 83.9397 89.1904 86.4586 88.5251V114.71Z" fill="#FDB98D"/>
<path d="M91.9236 121.611C94.4244 121.47 96.885 120.918 99.2066 119.978C100.634 119.381 102.005 118.657 103.304 117.815C102.747 116.956 102.191 116.071 101.634 115.158L99.9649 112.425C99.0928 112.987 98.1792 113.482 97.2319 113.906C95.5548 114.652 93.7524 115.077 91.9185 115.158V88.072C94.3479 88.2756 96.2836 88.832 97.7256 89.7413C98.795 90.3733 99.7991 91.1098 100.723 91.9399C101.496 91.3763 102.121 90.6342 102.545 89.7769C102.904 89.1095 103.111 88.3708 103.151 87.6139C103.178 86.9329 103.001 86.2594 102.642 85.68C102.287 85.1483 101.853 84.6745 101.354 84.2753C100.389 83.6582 99.3667 83.1366 98.3007 82.7179C96.8315 82.0868 94.7075 81.695 91.9287 81.5423V72.6663C91.1007 72.3696 90.228 72.2164 89.3484 72.2134C89.2313 72.2134 89.1295 72.2134 89.0176 72.2134V130.34H91.9287L91.9236 121.611Z" fill="#FC6719"/>
</g>
<defs>
<clipPath id="clip0_2831_6305">
<rect width="178.13" height="178.13" fill="white" transform="translate(0.0703125 0.259277)"/>
</clipPath>
</defs>
</svg>
